src/topics/icons/google-calendar.svg

<?xml version="1.0" encoding="UTF-8"?>
<svg width="256px" height="256px" viewBox="0 0 256 256" version="1.1" xmlns="http://www.w3.org/2000/svg" xmlns:xlink="http://www.w3.org/1999/xlink" preserveAspectRatio="xMidYMid">
		<g>
				<path d="M67.8521,9.3669 C69.7871,9.0529 71.8821,9.0209 73.6951,9.8769 C76.3791,10.9589 78.2781,13.5289 78.9281,16.2989 C79.1491,18.2689 79.0851,20.3569 78.1531,22.1559 C76.4611,25.8749 71.9601,28.0199 68.0091,26.9889 C63.9551,26.0819 60.9381,22.1809 60.9771,18.0369 C60.8991,14.0039 63.9861,10.3199 67.8521,9.3669" fill="#FFFFFF"></path>
				<path d="M183.8081,9.3527 C185.7681,9.0457 187.8811,9.0417 189.7011,9.9417 C192.7141,11.2697 194.7551,14.4137 194.9731,17.6727 C194.9701,20.1817 194.1311,22.8017 192.2711,24.5577 C190.6901,26.2247 188.4121,27.1457 186.1391,27.2487 C182.6201,27.2987 179.0721,25.1967 177.6941,21.9137 C176.8021,20.1607 176.9121,18.1407 177.0271,16.2417 C177.6941,12.8937 180.4991,10.1267 183.8081,9.3527" fill="#FFFFFF"></path>
				<path d="M172.1724,146.4318 C176.7584,146.4108 181.3454,146.4068 185.9284,146.4318 C185.8714,164.6608 185.9184,182.8928 185.9074,201.1208 C181.3384,201.1208 176.7694,201.1248 172.1974,201.1178 C172.1864,182.8888 172.2364,164.6608 172.1724,146.4318" fill="#FFFFFF"></path>
				<path d="M183.8081,9.3527 C180.4991,10.1267 177.6941,12.8937 177.0271,16.2417 C176.9121,18.1407 176.8021,20.1607 177.6941,21.9137 C179.0721,25.1967 182.6201,27.2987 186.1391,27.2487 C188.4121,27.1457 190.6901,26.2247 192.2711,24.5577 C194.1311,22.8017 194.9701,20.1817 194.9731,17.6727 C194.7551,14.4137 192.7141,11.2697 189.7011,9.9417 C187.8811,9.0417 185.7681,9.0457 183.8081,9.3527 M67.8521,9.3667 C63.9861,10.3197 60.8991,14.0037 60.9771,18.0367 C60.9381,22.1807 63.9541,26.0817 68.0091,26.9887 C71.9601,28.0197 76.4611,25.8747 78.1531,22.1557 C79.0851,20.3567 79.1491,18.2687 78.9281,16.2987 C78.2781,13.5287 76.3791,10.9587 73.6951,9.8767 C71.8821,9.0207 69.7871,9.0527 67.8521,9.3667 M23.4851,1.3967 C26.3771,0.1297 29.5751,-0.0633 32.6911,0.0157 C96.9421,0.0227 161.1931,0.0157 225.4441,0.0117 C232.4541,-0.1053 239.2831,4.2277 242.1171,10.6477 C243.3121,13.1787 243.8191,15.9877 243.7691,18.7787 C243.7411,25.0257 243.8331,31.2717 243.7331,37.5147 C241.6601,36.7257 239.4251,36.5157 237.2231,36.5007 C164.5231,36.5157 91.8241,36.5077 19.1241,36.5117 C16.8221,36.5727 14.4661,36.6717 12.2921,37.5187 C12.1991,31.0287 12.2491,24.5407 12.2281,18.0547 C12.1851,10.9017 16.8431,4.0347 23.4851,1.3967" fill="#C7C7C7"></path>
				<path d="M182.7305,91.7146 C183.7585,91.2896 184.8785,91.3116 185.9675,91.3966 C185.9035,109.6866 185.9755,127.9786 185.9325,146.2676 L185.9285,146.4316 C181.3455,146.4066 176.7585,146.4106 172.1725,146.4316 L172.1725,146.2716 C172.1655,133.6256 172.1615,120.9836 172.1755,108.3366 C163.0315,111.3776 153.9045,114.4686 144.7565,117.4916 C144.7285,113.3626 144.7775,109.2326 144.7315,105.1036 C157.3815,100.5946 170.0735,96.1976 182.7305,91.7146" fill="#C7C7C7"></path>
				<path d="M70.8325,98.2858 C76.5615,93.9208 83.7315,91.6648 90.8925,91.3968 C97.9955,91.1468 105.3475,92.2958 111.5615,95.9048 C116.4775,98.7208 120.3675,103.2288 122.4875,108.4758 C124.6005,113.7158 125.2715,119.5088 124.6295,125.1088 C123.2545,134.0788 116.3275,141.3248 108.2315,144.9078 C109.3885,145.2578 110.5165,145.6968 111.5945,146.2428 C110.8835,146.3788 110.1665,146.4568 109.4455,146.4358 C99.8945,146.3678 90.3425,146.4998 80.7975,146.3708 C80.7625,144.2978 80.7125,142.2208 80.8445,140.1498 C87.7295,139.9858 94.9935,140.8278 101.4355,137.8088 C106.7285,135.5748 110.6655,130.5128 111.4125,124.7988 C112.0545,119.3548 111.5045,113.4018 108.2785,108.7938 C105.7405,105.1458 101.4395,103.1258 97.1385,102.4868 C91.3345,101.6768 84.9705,102.2548 80.0985,105.7778 C75.3015,109.1508 72.7635,115.1038 72.8845,120.8828 C68.4655,121.0008 64.0435,120.9108 59.6215,120.9258 C59.7075,118.4988 59.8925,116.0568 60.5245,113.7048 C62.0445,107.5768 65.7965,102.0688 70.8325,98.2858" fill="#C7C7C7"></path>
				<path d="M12.292,37.5183 C14.466,36.6723 16.822,36.5723 19.124,36.5113 C91.824,36.5083 164.523,36.5153 237.223,36.5003 C239.425,36.5153 241.66,36.7263 243.733,37.5143 C250.016,39.7813 255.105,45.5993 255.762,52.3383 C254.484,47.7193 251.722,43.4213 247.592,40.8763 C244.601,39.0103 241.11,37.9323 237.577,37.9643 C164.645,38.0143 91.709,38.0143 18.774,38.0143 C13.281,37.9143 7.745,40.2843 4.244,44.5603 C2.544,46.3773 1.656,48.7223 0.467,50.8603 C1.645,44.7143 6.453,39.5923 12.292,37.5183" fill="#4483EF"></path>
				<path d="M171.9155,146.2927 L172.1725,146.2717 L172.1725,146.4317 C172.2365,164.6607 172.1865,182.8887 172.1975,201.1177 C176.7695,201.1247 181.3385,201.1217 185.9075,201.1217 C185.9175,182.8927 185.8715,164.6607 185.9285,146.4317 L185.9325,146.2677 L186.1535,146.2857 C188.1695,146.5287 190.2045,146.3817 192.2315,146.4037 C209.4115,146.3927 226.5935,146.3717 243.7725,146.4037 C245.7575,175.1327 247.6235,203.8697 249.5875,232.5987 C249.7795,235.8827 250.1975,239.2557 249.2875,242.4757 L249.2055,242.5787 C248.3625,243.5247 247.8775,244.7027 247.2745,245.8017 C244.0515,251.0627 238.0615,254.6037 231.8515,254.5437 C163.3165,254.5037 94.7865,254.5747 26.2555,254.5497 C24.1065,254.5497 21.9155,254.6607 19.8195,254.0967 C15.0835,252.8047 10.7895,249.7027 8.4055,245.3667 C7.9055,244.4167 7.4415,243.4427 6.7735,242.5997 L6.6885,242.4817 C5.5425,238.1777 6.4745,233.7157 6.6175,229.3547 C8.5015,201.7207 10.2965,174.0767 12.2065,146.4427 C35.0465,146.3857 57.8905,146.4107 80.7295,146.4287 C80.7515,147.7417 80.7625,149.0557 80.7445,150.3687 C87.9825,150.5077 95.5575,149.6407 102.4135,152.5067 C107.0425,154.3137 110.8445,158.1827 112.3085,162.9617 C113.9215,168.2507 113.7355,174.1047 111.8405,179.2987 C110.0735,184.1667 105.8405,187.9287 100.8965,189.3817 C94.8935,191.1587 88.2075,191.0057 82.4255,188.5247 C77.9245,186.6017 74.2515,182.7247 72.8635,177.9997 C72.2035,175.9177 71.9465,173.7297 71.9065,171.5567 C67.5305,171.5847 63.1545,171.5747 58.7785,171.5607 C58.8605,177.0957 60.2035,182.7177 63.2935,187.3647 C66.5885,192.4477 71.6995,196.1597 77.3005,198.3367 C84.3995,201.1067 92.2445,201.7247 99.7505,200.5747 C107.0505,199.4187 114.1995,196.1487 119.1575,190.5557 C123.7115,185.5017 126.0675,178.7417 126.3775,171.9997 C126.7955,165.5637 125.3145,158.8037 121.2275,153.6917 C118.9295,150.6657 115.7695,148.4807 112.5435,146.5607 C114.1135,146.3647 115.6985,146.4067 117.2795,146.4147 C133.4635,146.3997 149.6465,146.4177 165.8295,146.4067 C167.8565,146.3647 169.8945,146.5317 171.9155,146.2927" fill="#4483EF"></path>
				<path d="M4.2437,44.5603 C7.7447,40.2843 13.2807,37.9143 18.7737,38.0143 C91.7097,38.0143 164.6447,38.0143 237.5767,37.9643 C241.1097,37.9323 244.6007,39.0103 247.5917,40.8763 C251.7217,43.4213 254.4847,47.7193 255.7627,52.3383 C256.1157,53.9693 256.0187,55.6613 255.8337,57.3103 C251.8717,86.9893 247.7637,116.6493 243.8547,146.3353 C227.3687,146.3073 210.8817,146.3503 194.3987,146.3323 C191.6497,146.3103 188.8977,146.4353 186.1537,146.2863 L185.9317,146.2683 C185.9747,127.9783 185.9037,109.6863 185.9677,91.3963 C184.8787,91.3113 183.7587,91.2893 182.7307,91.7143 C170.0737,96.1973 157.3817,100.5953 144.7317,105.1033 C144.7777,109.2323 144.7277,113.3623 144.7567,117.4923 C153.9047,114.4693 163.0317,111.3773 172.1757,108.3363 C172.1617,120.9833 172.1647,133.6253 172.1727,146.2713 L171.9157,146.2923 C152.7587,146.4353 133.5957,146.2963 114.4387,146.3683 C113.4927,146.3463 112.4937,146.6393 111.5947,146.2433 C110.5157,145.6973 109.3887,145.2583 108.2317,144.9083 C116.3267,141.3243 123.2547,134.0793 124.6297,125.1093 C125.2717,119.5093 124.6007,113.7163 122.4877,108.4763 C120.3677,103.2293 116.4767,98.7213 111.5617,95.9053 C105.3477,92.2963 97.9947,91.1473 90.8917,91.3963 C83.7317,91.6643 76.5607,93.9203 70.8327,98.2863 C65.7967,102.0693 62.0447,107.5763 60.5247,113.7053 C59.8927,116.0573 59.7067,118.4983 59.6207,120.9263 C64.0437,120.9113 68.4657,121.0003 72.8847,120.8833 C72.7637,115.1043 75.3017,109.1503 80.0987,105.7773 C84.9707,102.2543 91.3347,101.6763 97.1387,102.4863 C101.4397,103.1253 105.7407,105.1453 108.2787,108.7933 C111.5047,113.4013 112.0547,119.3553 111.4117,124.7983 C110.6657,130.5133 106.7287,135.5743 101.4357,137.8093 C94.9937,140.8283 87.7297,139.9863 80.8447,140.1503 L80.6737,140.1533 C80.7447,142.2273 80.6627,144.3053 80.7197,146.3823 C57.8687,146.3463 35.0147,146.3393 12.1607,146.3853 C8.2627,117.3063 4.3047,88.2343 0.3857,59.1593 C-0.0653,56.4173 -0.2183,53.5733 0.4677,50.8603 C1.6557,48.7223 2.5447,46.3773 4.2437,44.5603" fill="#3664D0"></path>
				<path d="M6.7739,242.5998 C7.4409,243.4428 7.9059,244.4168 8.4049,245.3668 C10.7899,249.7028 15.0839,252.8048 19.8199,254.0968 C21.9149,254.6608 24.1069,254.5498 26.2549,254.5498 C94.7859,254.5748 163.3169,254.5038 231.8509,254.5428 C238.0619,254.6038 244.0509,251.0628 247.2739,245.8018 C247.8779,244.7028 248.3629,243.5248 249.2049,242.5788 C247.6919,248.4358 242.9809,253.2968 237.2199,255.1028 C234.0069,256.2248 230.5629,255.9418 227.2259,255.9778 C160.4759,255.9778 93.7259,255.9748 26.9769,255.9748 C24.3139,255.9958 21.5899,256.0208 19.0269,255.1888 C13.1519,253.4468 8.3229,248.5388 6.7739,242.5998" fill="#3664D0"></path>
		</g>
</svg>

<svg height="256" preserveAspectRatio="xMidYMid" viewBox="0 0 256 256" width="256" xmlns="http://www.w3.org/2000/svg"><g fill="#fff"><path d="m67.8521 9.3669c1.935-.314 4.03-.346 5.843.51 2.684 1.082 4.583 3.652 5.233 6.422.221 1.97.157 4.058-.775 5.857-1.692 3.719-6.193 5.864-10.144 4.833-4.054-.907-7.071-4.808-7.032-8.952-.078-4.033 3.009-7.717 6.875-8.67"/><path d="m183.8081 9.3527c1.96-.307 4.073-.311 5.893.589 3.013 1.328 5.054 4.472 5.272 7.731-.003 2.509-.842 5.129-2.702 6.885-1.581 1.667-3.859 2.588-6.132 2.691-3.519.05-7.067-2.052-8.445-5.335-.892-1.753-.782-3.773-.667-5.672.667-3.348 3.472-6.115 6.781-6.889"/><path d="m172.1724 146.4318c4.586-.021 9.173-.025 13.756 0-.057 18.229-.01 36.461-.021 54.689-4.569 0-9.138.004-13.71-.003-.011-18.229.039-36.457-.025-54.686"/></g><path d="m183.8081 9.3527c-3.309.774-6.114 3.541-6.781 6.889-.115 1.899-.225 3.919.667 5.672 1.378 3.283 4.926 5.385 8.445 5.335 2.273-.103 4.551-1.024 6.132-2.691 1.86-1.756 2.699-4.376 2.702-6.885-.218-3.259-2.259-6.403-5.272-7.731-1.82-.9-3.933-.896-5.893-.589m-115.956.014c-3.866.953-6.953 4.637-6.875 8.67-.039 4.144 2.977 8.045 7.032 8.952 3.951 1.031 8.452-1.114 10.144-4.833.932-1.799.996-3.887.775-5.857-.65-2.77-2.549-5.34-5.233-6.422-1.813-.856-3.908-.824-5.843-.51m-44.367-7.97c2.892-1.267 6.09-1.46 9.206-1.381 64.251.007 128.502 0 192.753-.004 7.01-.117 13.839 4.216 16.673 10.636 1.195 2.531 1.702 5.34 1.652 8.131-.028 6.247.064 12.493-.036 18.736-2.073-.789-4.308-.999-6.51-1.014-72.7.015-145.399.007-218.099.011-2.302.061-4.658.16-6.832 1.007-.093-6.49-.043-12.978-.064-19.464-.043-7.153 4.615-14.02 11.257-16.658" fill="#c7c7c7"/><path d="m182.7305 91.7146c1.028-.425 2.148-.403 3.237-.318-.064 18.29.008 36.582-.035 54.871l-.004.164c-4.583-.025-9.17-.021-13.756 0v-.16c-.007-12.646-.011-25.288.003-37.935-9.144 3.041-18.271 6.132-27.419 9.155-.028-4.129.021-8.259-.025-12.388 12.65-4.509 25.342-8.906 37.999-13.389" fill="#c7c7c7"/><path d="m70.8325 98.2858c5.729-4.365 12.899-6.621 20.06-6.889 7.103-.25 14.455.899 20.669 4.508 4.916 2.816 8.806 7.324 10.926 12.571 2.113 5.24 2.784 11.033 2.142 16.633-1.375 8.97-8.302 16.216-16.398 19.799 1.157.35 2.285.789 3.363 1.335-.711.136-1.428.214-2.149.193-9.551-.068-19.103.064-28.648-.065-.035-2.073-.085-4.15.047-6.221 6.885-.164 14.149.678 20.591-2.341 5.293-2.234 9.23-7.296 9.977-13.01.642-5.444.092-11.397-3.134-16.005-2.538-3.648-6.839-5.668-11.14-6.307-5.804-.81-12.168-.232-17.04 3.291-4.797 3.373-7.335 9.326-7.214 15.105-4.419.118-8.841.028-13.263.043.086-2.427.271-4.869.903-7.221 1.52-6.128 5.272-11.636 10.308-15.419" fill="#c7c7c7"/><path d="m12.292 37.5183c2.174-.846 4.53-.946 6.832-1.007 72.7-.003 145.399.004 218.099-.011 2.202.015 4.437.226 6.51 1.014 6.283 2.267 11.372 8.085 12.029 14.824-1.278-4.619-4.04-8.917-8.17-11.462-2.991-1.866-6.482-2.944-10.015-2.912-72.932.05-145.868.05-218.803.05-5.493-.1-11.029 2.27-14.53 6.546-1.7 1.817-2.588 4.162-3.777 6.3 1.178-6.146 5.986-11.268 11.825-13.342" fill="#4483ef"/><path d="m171.9155 146.2927.257-.021v.16c.064 18.229.014 36.457.025 54.686 4.572.007 9.141.004 13.71.004.01-18.229-.036-36.461.021-54.69l.004-.164.221.018c2.016.243 4.051.096 6.078.118 17.18-.011 34.362-.032 51.541 0 1.985 28.729 3.851 57.466 5.815 86.195.192 3.284.61 6.657-.3 9.877l-.082.103c-.843.946-1.328 2.124-1.931 3.223-3.223 5.261-9.213 8.802-15.423 8.742-68.535-.04-137.065.031-205.596.006-2.149 0-4.34.111-6.436-.453-4.736-1.292-9.03-4.394-11.414-8.73-.5-.95-.964-1.924-1.632-2.767l-.085-.118c-1.146-4.304-.214-8.766-.071-13.127 1.884-27.634 3.679-55.278 5.589-82.912 22.84-.057 45.684-.032 68.523-.014.022 1.313.033 2.627.015 3.94 7.238.139 14.813-.728 21.669 2.138 4.629 1.807 8.431 5.676 9.895 10.455 1.613 5.289 1.427 11.143-.468 16.337-1.767 4.868-6 8.63-10.944 10.083-6.003 1.777-12.689 1.624-18.471-.857-4.501-1.923-8.174-5.8-9.562-10.525-.66-2.082-.917-4.27-.957-6.443-4.376.028-8.752.018-13.128.004.082 5.535 1.425 11.157 4.515 15.804 3.295 5.083 8.406 8.795 14.007 10.972 7.099 2.77 14.944 3.388 22.45 2.238 7.3-1.156 14.449-4.426 19.407-10.019 4.554-5.054 6.91-11.814 7.22-18.556.418-6.436-1.063-13.196-5.15-18.308-2.298-3.026-5.458-5.211-8.684-7.131 1.57-.196 3.155-.154 4.736-.146 16.184-.015 32.367.003 48.55-.008 2.027-.042 4.065.125 6.086-.114" fill="#4483ef"/><path d="m4.2437 44.5603c3.501-4.276 9.037-6.646 14.53-6.546 72.936 0 145.871 0 218.803-.05 3.533-.032 7.024 1.046 10.015 2.912 4.13 2.545 6.893 6.843 8.171 11.462.353 1.631.256 3.323.071 4.972-3.962 29.679-8.07 59.339-11.979 89.025-16.486-.028-32.973.015-49.456-.003-2.749-.022-5.501.103-8.245-.046l-.222-.018c.043-18.29-.028-36.582.036-54.872-1.089-.085-2.209-.107-3.237.318-12.657 4.483-25.349 8.881-37.999 13.389.046 4.129-.004 8.259.025 12.389 9.148-3.023 18.275-6.115 27.419-9.156-.014 12.647-.011 25.289-.003 37.935l-.257.021c-19.157.143-38.32.004-57.477.076-.946-.022-1.945.271-2.844-.125-1.079-.546-2.206-.985-3.363-1.335 8.095-3.584 15.023-10.829 16.398-19.799.642-5.6-.029-11.393-2.142-16.633-2.12-5.247-6.011-9.755-10.926-12.571-6.214-3.609-13.567-4.758-20.67-4.509-7.16.268-14.331 2.524-20.059 6.89-5.036 3.783-8.788 9.29-10.308 15.419-.632 2.352-.818 4.793-.904 7.221 4.423-.015 8.845.074 13.264-.043-.121-5.779 2.417-11.733 7.214-15.106 4.872-3.523 11.236-4.101 17.04-3.291 4.301.639 8.602 2.659 11.14 6.307 3.226 4.608 3.776 10.562 3.133 16.005-.746 5.715-4.683 10.776-9.976 13.011-6.442 3.019-13.706 2.177-20.591 2.341l-.171.003c.071 2.074-.011 4.152.046 6.229-22.851-.036-45.705-.043-68.559.003-3.898-29.079-7.856-58.151-11.775-87.226-.451-2.742-.604-5.586.082-8.299 1.188-2.138 2.077-4.483 3.776-6.3" fill="#3664d0"/><path d="m6.7739 242.5998c.667.843 1.132 1.817 1.631 2.767 2.385 4.336 6.679 7.438 11.415 8.73 2.095.564 4.287.453 6.435.453 68.531.025 137.062-.046 205.596-.007 6.211.061 12.2-3.48 15.423-8.741.604-1.099 1.089-2.277 1.931-3.223-1.513 5.857-6.224 10.718-11.985 12.524-3.213 1.122-6.657.839-9.994.875-66.75 0-133.5-.003-200.249-.003-2.663.021-5.387.046-7.95-.786-5.875-1.742-10.704-6.65-12.253-12.589" fill="#3664d0"/></svg>
